X:6569
T:The Boys of Bluehill
O:england
M:4/4
L:1/8
C:Trad
R:Hornpipe
K:D
FA|BAFA D2FA|BABd e2de|faaf egfe|dfed B2dA|BAFA D2FA|BABd e2de|faaf egfe
|d2 f2 d2 :|
fg|afdf a2gf|efga b2ag|fagf egfe|dfed B2dA|BAFA D2FA|BABd e2de|faaf egfe
|d2 f2 d2 :|


